src/svg/anchor.svg

<svg version="1.2" baseProfile="tiny" xmlns="http://www.w3.org/2000/svg" width="24" height="24" viewBox="0 0 24 24"><path d="M18 13.5c-.553 0-1 .447-1 1 0 2.414-1.721 4.434-4 4.898v-7.398h4c.553 0 1-.447 1-1s-.447-1-1-1h-4v-1.184c1.162-.413 2-1.511 2-2.816 0-1.657-1.343-3-3-3s-3 1.343-3 3c0 1.305.838 2.403 2 2.816v1.184h-4c-.553 0-1 .447-1 1s.447 1 1 1h4v7.398c-2.279-.465-4-2.484-4-4.898 0-.553-.447-1-1-1s-1 .447-1 1c0 3.859 3.141 7 7 7s7-3.141 7-7c0-.553-.447-1-1-1zm-6-8.5c.551 0 1 .449 1 1s-.449 1-1 1-1-.449-1-1 .449-1 1-1z"/></svg>

<?xml version="1.0" encoding="iso-8859-1"?>
<!-- Generator: Adobe Illustrator 16.2.1, SVG Export Plug-In . SVG Version: 6.00 Build 0)  -->
<svg version="1.2" baseProfile="tiny" id="Layer_1" xmlns="http://www.w3.org/2000/svg" xmlns:xlink="http://www.w3.org/1999/xlink"
	 x="0px" y="0px" width="24px" height="24px" viewBox="0 0 24 24" xml:space="preserve">
<g>
	<path d="M18,13.5c-0.553,0-1,0.447-1,1c0,2.414-1.721,4.434-4,4.898V12h4c0.553,0,1-0.447,1-1s-0.447-1-1-1h-4V8.816
		C14.162,8.403,15,7.305,15,6c0-1.657-1.343-3-3-3S9,4.343,9,6c0,1.305,0.838,2.403,2,2.816V10H7c-0.553,0-1,0.447-1,1s0.447,1,1,1
		h4v7.398c-2.279-0.465-4-2.484-4-4.898c0-0.553-0.447-1-1-1s-1,0.447-1,1c0,3.859,3.141,7,7,7s7-3.141,7-7
		C19,13.947,18.553,13.5,18,13.5z M12,5c0.551,0,1,0.449,1,1s-0.449,1-1,1s-1-0.449-1-1S11.449,5,12,5z"/>
</g>
</svg>
